!!!COM: Corelli, Arcangelo
!!!OTL: 
!!!ONM: Opus 3, No. 12
!!!OMV: 4
!!!CDT: 1653/2/17/-1713/1/8/
!!!OCY: Italia
**kern	**kern	**kern	**kern
*clefC	*clefC	*clefG	*clefG
*k[f#c#]	*k[f#c#]	*k[f#c#]	*k[f#c#]
*D:	*D:	*D:	*D:
*M4/4	*M4/4	*M4/4	*M4/4
=1	=1	=1	=1
8A	8A	4.aa	4.ccc#
8AA	8AA	.	.
8C#	8C#	.	.
8AA	8AA	8aa	8ccc#
8r	8r	2gg#	2bb
8E	8E	.	.
8G#	8G#	.	.
8E	8E	.	.
=2	=2	=2	=2
8r	8r	4.ff#	4.aa
8F#	8F#	.	.
8A	8A	.	.
8F#	8F#	8ff#	8aa
8r	8r	2ee	2gg#
8C#	8C#	.	.
8E	8E	.	.
8C#	8C#	.	.
=3	=3	=3	=3
8r	8r	4.dd	4.ff#
8D	8D	.	.
8F#	8F#	.	.
8D	8D	8dd	8bb
8r	8r	4dd	8gg#
8E	8E	.	8ee
8F#	8F#	4cc#	4aa
8C#	8C#	.	.
=4	=4	=4	=4
8D	8D	2b	4.aa
8BB	8BB	.	.
8E	8E	.	.
8EE	8EE	.	8gg#
4AA	4AA	2a	2aa
4r	4r	.	.
=5	=5	=5	=5
8A	8A	4.aa	4.ccc#
8AA	8AA	.	.
8C#	8C#	.	.
8AA	8AA	8aa	8ccc#
8r	8r	2gg#	2bb
8E	8E	.	.
8G#	8G#	.	.
8E	8E	.	.
=6	=6	=6	=6
8r	8r	4.ff#	4.aa
8F#	8F#	.	.
8D#	8D#	.	.
8BB	8BB	8ff#	8aa
8r	8r	2ee	2gg#
8E	8E	.	.
8G#	8G#	.	.
8E	8E	.	.
=7	=7	=7	=7
8r	8r	4.cc#	4ee
8AA	8AA	.	.
8C#	8C#	.	2aa
8AA	8AA	8ff#	.
8r	8r	8dd#	.
8B	8B	8b	.
8c#	8c#	4ee	4gg#
8G#	8G#	.	.
=8	=8	=8	=8
8A	8A	4.ee	2ff#
8F#	8F#	.	.
8B	8B	.	.
8BB	8BB	8dd#	.
8r	8r	2ee	2gg#
8E	8E	.	.
8G#	8G#	.	.
8E	8E	.	.
=9	=9	=9	=9
8r	8r	4.aa	4.ccc#
8A	8A	.	.
8c#	8c#	.	.
8A	8A	8aa	8ccc#
8r	8r	2ff#	2aa
8D	8D	.	.
8F#	8F#	.	.
8D	8D	.	.
=10	=10	=10	=10
8r	8r	4.bb	4.ddd
8B	8B	.	.
8d	8d	.	.
8B	8B	8bb	8ddd
8r	8r	2gg#	2bb
8E	8E	.	.
8G#	8G#	.	.
8E	8E	.	.
=11	=11	=11	=11
8r	8r	4.ccc#	4.eee
8c#	8c#	.	.
8e	8e	.	.
8c#	8c#	8ccc#	8eee
8r	8r	2aa	2ccc#
8F#	8F#	.	.
8A	8A	.	.
8F#	8F#	.	.
=12	=12	=12	=12
8r	8r	4.ddd	4.ff#
8D	8D	.	.
8F#	8F#	.	.
8D	8D	8ddd	8bb
8r	8r	4ddd	8gg#
8E	8E	.	8ee
8F#	8F#	4ccc#	4aa
8C#	8C#	.	.
=13	=13	=13	=13
8D	8D	2bb	4.aa
8BB	8BB	.	.
8E	8E	.	.
8EE	8EE	.	8gg#
8AA	8AA	4.aa	8aa
8A	8A	.	8a
8F#	8F#	.	[4dd
8D	8D	8ff#	.
=14	=14	=14	=14
8E	8E	8g#	4dd]
8E	8E	8e	.
8F#	8F#	4a	4cc#
8C#	8C#	.	.
8D	8D	4.a	2b
8BB	8BB	.	.
8E	8E	.	.
8EE	8EE	8g#	.
=15	=15	=15	=15
2AA	2AA	2a	2a
8A	16A	4.aa	4.ccc#
.	16AA	.	.
8AA	16C#	.	.
.	16BB	.	.
8C#	16AA	.	.
.	16BB	.	.
8AA	16C#	8aa	8ccc#
.	16AA	.	.
=16	=16	=16	=16
8r	16E	2gg#	2bb
.	16F#	.	.
8E	16G#	.	.
.	16F#	.	.
8G#	16E	.	.
.	16F#	.	.
8E	16G#	.	.
.	16E	.	.
8r	16F#	4.ff#	4.aa
.	16G#	.	.
8F#	16A	.	.
.	16G#	.	.
8A	16F#	.	.
.	16G#	.	.
8F#	16A	8ff#	8aa
.	16F#	.	.
=17	=17	=17	=17
8r	16C#	2ee	2gg#
.	16D	.	.
8C#	16E	.	.
.	16D	.	.
8E	16C#	.	.
.	16D	.	.
8C#	16E	.	.
.	16C#	.	.
8r	16D	4.dd	4.ff#
.	16E	.	.
8D	16F#	.	.
.	16E	.	.
8F#	16D	.	.
.	16E	.	.
8D	16F#	8dd	8bb
.	16D	.	.
=18	=18	=18	=18
8r	16E	4dd	8gg#
.	16F#	.	.
8E	16G#	.	8ee
.	16E	.	.
8F#	16F#	4cc#	4aa
.	16G#	.	.
8C#	16A	.	.
.	16C#	.	.
8D	16D	2b	4.aa
.	16C#	.	.
8BB	16D	.	.
.	16BB	.	.
8E	16E	.	.
.	16D	.	.
8EE	16E	.	8gg#
.	16EE	.	.
=19	=19	=19	=19
4AA	16AA	2a	2aa
.	16BB	.	.
.	16C#	.	.
.	16D	.	.
4r	16E	.	.
.	16F#	.	.
.	16G#	.	.
.	16E	.	.
8A	16A	4.aa	4.ccc#
.	16AA	.	.
8AA	16C#	.	.
.	16BB	.	.
8C#	16AA	.	.
.	16BB	.	.
8AA	16C#	8aa	8ccc#
.	16AA	.	.
=20	=20	=20	=20
8r	16E	2gg#	2bb
.	16F#	.	.
8E	16G#	.	.
.	16F#	.	.
8G#	16E	.	.
.	16F#	.	.
8E	16G#	.	.
.	16E	.	.
8r	16F#	4.ff#	4.aa
.	16G#	.	.
8F#	16F#	.	.
.	16E	.	.
8D#	16D#	.	.
.	16C#	.	.
8BB	16D#	8ff#	8aa
.	16BB	.	.
=21	=21	=21	=21
8r	16E	2ee	2gg#
.	16F#	.	.
8E	16G#	.	.
.	16F#	.	.
8G#	16E	.	.
.	16F#	.	.
8E	16G#	.	.
.	16E	.	.
8r	16A	4.cc#	4ee
.	16B	.	.
8AA	16c#	.	.
.	16B	.	.
8C#	16A	.	[4aa
.	16B	.	.
8AA	16c#	8ff#	.
.	16A	.	.
=22	=22	=22	=22
8r	16B	8dd#	4aa]
.	16c#	.	.
8B	16d#	8b	.
.	16B	.	.
8c#	16c#	4ee	4gg#
.	16d#	.	.
8G#	16e	.	.
.	16G#	.	.
8A	16A	4.ee	2ff#
.	16G#	.	.
8F#	16A	.	.
.	16F#	.	.
8B	16B	.	.
.	16A	.	.
8BB	16B	8dd#	.
.	16BB	.	.
=23	=23	=23	=23
8r	16E	2ee	2gg#
.	16F#	.	.
8E	16G#	.	.
.	16F#	.	.
8G#	16E	.	.
.	16F#	.	.
8E	16G#	.	.
.	16E	.	.
8r	16C#	4.aa	4.ccc#
.	16A	.	.
8A	16c#	.	.
.	16B	.	.
8c#	16A	.	.
.	16B	.	.
8A	16c#	8aa	8ccc#
.	16A	.	.
=24	=24	=24	=24
8r	16d	2ff#	2aa
.	16D	.	.
8D	16F#	.	.
.	16E	.	.
8F#	16D	.	.
.	16E	.	.
8D	16F#	.	.
.	16D	.	.
8r	16BB	4.bb	4.ddd
.	16B	.	.
8B	16d	.	.
.	16c#	.	.
8d	16B	.	.
.	16c#	.	.
8B	16d	8bb	8ddd
.	16B	.	.
=25	=25	=25	=25
8r	16e	2gg#	2bb
.	16E	.	.
8E	16G#	.	.
.	16F#	.	.
8G#	16E	.	.
.	16F#	.	.
8E	16G#	.	.
.	16E	.	.
8r	16C#	4.ccc#	4.eee
.	16c#	.	.
8c#	16e	.	.
.	16d	.	.
8e	16c#	.	.
.	16d	.	.
8c#	16e	8ccc#	8eee
.	16c#	.	.
=26	=26	=26	=26
8r	16f#	2aa	2ccc#
.	16F#	.	.
8F#	16A	.	.
.	16G#	.	.
8A	16F#	.	.
.	16G#	.	.
8F#	16A	.	.
.	16F#	.	.
8r	16D	4.ddd	4.ff#
.	16E	.	.
8D	16F#	.	.
.	16E	.	.
8F#	16D	.	.
.	16E	.	.
8D	16F#	8ddd	8bb
.	16D	.	.
=27	=27	=27	=27
8r	16E	4ddd	8gg#
.	16F#	.	.
8E	16G#	.	8ee
.	16E	.	.
8F#	16F#	4ccc#	2aa
.	16G#	.	.
8C#	16A	.	.
.	16C#	.	.
8D	16D	2bb	.
.	16C#	.	.
8BB	16D	.	.
.	16BB	.	.
8E	16E	.	4gg#
.	16D	.	.
8EE	16E	.	.
.	16EE	.	.
=28	=28	=28	=28
8AA	16AA	4.aa	8aa
.	16E	.	.
8A	16A	.	8a
.	16G#	.	.
8F#	16F#	.	2dd
.	16E	.	.
8D	16F#	8ff#	.
.	16D	.	.
8E	16E	8g#	.
.	16F#	.	.
8E	16G#	8e	.
.	16E	.	.
8F#	16F#	4a	4cc#
.	16G#	.	.
8C#	16A	.	.
.	16C#	.	.
=29	=29	=29	=29
8D	16D	4.a	2b
.	16C#	.	.
8BB	16D	.	.
.	16BB	.	.
8E	16E	.	.
.	16D	.	.
8EE	16E	8g#	.
.	16EE	.	.
2AA	2AA	2a	2a
==	==	==	==
*-	*-	*-	*-
!!!RWG: This file only contains pitch and duration data.
!!!RWG: Transposing instruments are not transposed.
!!!RWG: Durations of rests and tied notes may be interpreted.
!!!RWG: Key is interpreted using the Humdrum key tool.
!!!SCA: 
!!!YOR: Chrysander Edition
!!!AGN: chamber
!!!AFT: stage1
!!!ENC: F. Bennion
!!!END: 1997/04/15
!!!AST: baroque
!!!YEC: Copyright 1994, Center for Computer Assisted Research in the Humanities
!!!YEM: Rights to all derivative electronic formats reserved.
!!!YEM: Refer to licensing agreement for further details.
!!!YEN: United States of America
!!!EED: W.B. Hewlett
!!!KEY: 944352408
!!!EMD: Converted from MuseData to Humdrum Aug 9, 1999, by Bret Aarden using muse2kern.
!!!VTS: 2017861561
